app/dist/common/images/star-lp.svg

<svg height="18" viewBox="0 0 18 18" width="18" xmlns="http://www.w3.org/2000/svg"><path d="m0 0h18v18h-18z" fill="#0971ce"/><path d="m3 7.98v1.16l5.98-4.98 6.02 4.98v-1.16l-6.02-4.98zm1 5.02v-3.17l1.02-.92v3.09h5.98v-3.5l-2-1.67-2 1.67v1.5h2v-1h1v2h-4v-3.02l3-2.48 3 2.51v4.99zm9-4.09v4.06h1v-3.14z" fill="#fff"/></svg>

<!-- by TradingView --><svg width="18" height="18" viewBox="0 0 18 18" xmlns="http://www.w3.org/2000/svg"><path fill="#0971CE" d="M0 0h18v18H0z"/><path d="M3 7.98v1.16l5.98-4.98L15 9.14V7.98L8.98 3 3 7.98ZM4 13V9.83l1.02-.92V12H11V8.5L9 6.83 7 8.5V10h2V9h1v2H6V7.98L9 5.5l3 2.51V13H4Zm9-4.09v4.06h1V9.83l-1-.92Z" fill="#fff"/></svg>
